src/assets/filled/EnjinCoin.svg

<?xml version="1.0" encoding="UTF-8"?>
<svg width="24" height="24" viewBox="0 0 24 24" xmlns="http://www.w3.org/2000/svg">
 <path d="m12 2c-5.52 0-10 4.48-10 10s4.48 10 10 10 10-4.48 10-10-4.48-10-10-10zm3.75 9.25c0.41 0 0.75 0.34 0.75 0.75s-0.34 0.75-0.75 0.75h-7.25v0.25c0 1.24 1.01 2.25 2.25 2.25h5c0.41 0 0.75 0.34 0.75 0.75s-0.34 0.75-0.75 0.75h-5c-2.07 0-3.75-1.68-3.75-3.75v-2c0-2.07 1.68-3.75 3.75-3.75h5c0.41 0 0.75 0.34 0.75 0.75s-0.34 0.75-0.75 0.75h-5c-1.24 0-2.25 1.01-2.25 2.25v0.25h7.25z"/>
</svg>

<svg width="24" height="24" viewBox="0 0 24 24"  xmlns="http://www.w3.org/2000/svg">
<path d="M12 2C6.48 2 2 6.48 2 12C2 17.52 6.48 22 12 22C17.52 22 22 17.52 22 12C22 6.48 17.52 2 12 2ZM15.75 11.25C16.16 11.25 16.5 11.59 16.5 12C16.5 12.41 16.16 12.75 15.75 12.75H8.5V13C8.5 14.24 9.51 15.25 10.75 15.25H15.75C16.16 15.25 16.5 15.59 16.5 16C16.5 16.41 16.16 16.75 15.75 16.75H10.75C8.68 16.75 7 15.07 7 13V11C7 8.93 8.68 7.25 10.75 7.25H15.75C16.16 7.25 16.5 7.59 16.5 8C16.5 8.41 16.16 8.75 15.75 8.75H10.75C9.51 8.75 8.5 9.76 8.5 11V11.25H15.75Z" />
</svg>
